X:75
T:Greig's Pipes (reel)  
B:CRE1.096 (Piopai Greig)
F:file ID: cre.1/075greigs
S:Sonny Brogan
N:This isn't the "session" version of this tune.
M:C
L:1/8
Q:180
R:reel
K:G
z|DGBG AGBG|DGBG AGEG|DGBG AGBG|dBAB GED:|
e|:"5"d2Bd egge|d2BG AGEe|d2Bd eggb|1 agbg ageg:|\
[2 agbg age||
d|"9"B2BA BAGB|A2BG AGEG|B2BA BAG2|(3ABc BG AGEG|
"13"B2BA BAGB|A2BG AGEG|(3B^cd ed BdeB|A2BG AGE||
D|"17"G2GF GBdB|G2BG AGEF|G2GF GBdB|A2BG AGED|
"21"G2GF GBdB|G2BG AGEF|G2GF GBdB|A2BG AGEG||
"25"B2Gd Bdgd|B2GB AGEG|B2GB GBGB|A2BG AGEG|
"29"B2Gd Bdgd|B2GB AGEG|(3B^cd gB gBgB|A2BG AGEG||

%%%

